packages/sources/icons/src/vitamix/thumb-up-fill.svg

<svg width="16" height="16" viewBox="0 0 16 16" xmlns="http://www.w3.org/2000/svg"><path fill-rule="evenodd" clip-rule="evenodd" d="M9.12863 0.871289L4.86196 5.13796C4.73693 5.26295 4.66666 5.43249 4.66663 5.60929V13.3333C4.66663 13.7015 4.9651 14 5.33329 14H12.5533C12.8235 14.0001 13.067 13.8371 13.17 13.5873L15.2333 8.57729C15.2995 8.41612 15.3335 8.24353 15.3333 8.06929V6.66662C15.3333 5.93024 14.7363 5.33329 14 5.33329H9.73329L10.502 2.31329C10.6017 1.92196 10.4562 1.50907 10.1333 1.26662L9.56463 0.839955C9.43177 0.740348 9.24587 0.753708 9.12863 0.871289ZM3.33329 5.99999H1.33329C0.965103 5.99999 0.666626 6.29847 0.666626 6.66666V13.3333C0.666626 13.7015 0.965103 14 1.33329 14H3.33329V5.99999Z"/></svg>

<svg width="16" height="16" xmlns="http://www.w3.org/2000/svg"><path fill-rule="evenodd" clip-rule="evenodd" d="M9.129.871 4.862 5.138a.667.667 0 0 0-.195.471v7.724c0 .368.298.667.666.667h7.22c.27 0 .514-.163.617-.413l2.063-5.01c.066-.16.1-.333.1-.508V6.667c0-.737-.597-1.334-1.333-1.334H9.733l.769-3.02a1 1 0 0 0-.369-1.046L9.565.84a.333.333 0 0 0-.436.031ZM3.333 6h-2a.667.667 0 0 0-.666.667v6.666c0 .368.298.667.666.667h2V6Z"/></svg>
